X:397
T: Grundwiller-Lied (4-97), S. 128
N: P0667
O: Lothringen
S: PINCK, Louis: Verklingende Weisen Bd 4, Kassel 1939]
R: ???, Verfhrung?]
M: 3/8
L: 1/16
K: G
B2 | B4BB | B4dd | c4A2 | A4z2 |
d6 | c2A2d2 | B4
BB | B4B2 | B2B2d2 | c2A2A2 | A4z2 |
d6 | c2A2d2 | B4

@@@ Tune index: 7947
